X: 20
T: Quad
R: reel
M: 2/4
L: 1/16
N: The pickup notes don't "add up" correctly.
Z: 2010 John Chambers <jc:trillian.mit.edu>
B: 19th century tune book collected by W.A. Cocks.
F: http://www.asaplive.com/archive/browse_by_collection.asp
N: The asaplive.com web site is complex, and links to its files don't usually work.
K: G
D2 |\
G4 A2B2 | {a}g3fg3b | (eg)(fg) (ag).f.e | defg Bcde |\
G4 B2c2 | {a}g3fg3a | bgea gBed | G4 :|
|: D4 |\
F2A2 c4 | ((3gfa) ((3gfe) ((3ded) ((3cBA) | B2d2 g4 | (3Bdg (3fed {e}(3dcd (3ecA |
(3GBd (3gba (3gfe (3dcB | (3d^cd (3^dec (3A^GA (3cAF | (3GFG (3BAB (3d^cd (3efg | (3ABc (3DBA G2 :|
|: d8 | e2d2B2f2 | g2f2e2d2 | e2d2c2B2 |\
d2e/d/c/d/ b2a2 | g2f2A2e2 | ^d2e2D2B2 | G4 :|


%%sep 5 1 500

